X: 129020
T: CALVER LODGE
%R: reel
B: James Kerr "Merry Melodies" v.1 p.29 s.0 #20
Z: 2016 John Chambers <jc:trillian.mit.edu>
M: 2/4
L: 1/16
K: D
uA2 !segno!|\
d2(df) edcB | A2(AB) AGFE |\
(DB)AF (DB)AF | G2E2E2 (3(ABc) |\
d2(df) edcB | A2(AB) AGFE |\
DFAF EFGA | F2D2D2 H||
uf2 |\
efgf edce | (de)fg a2fa |\
g2eg f2df | edcB A2(cd) |\
efgf edce | (de)fg a2fa |\
g2eg f2df | ea^gb a=gf"_D.C."e |]

%%sep 1 1 500
%%sep 1 1 500

